dist/svgs/unicons/line/ruler-combined.svg

<svg xmlns="http://www.w3.org/2000/svg" viewBox="0 0 24 24"><path d="M21 2H3a1 1 0 00-1 1v18a1 1 0 001 1h6a1 1 0 001-1V10h11a1 1 0 001-1V3a1 1 0 00-1-1zm-1 6h-2V7a1 1 0 00-2 0v1h-2V7a1 1 0 00-2 0v1h-2V7a1 1 0 00-2 0v1H7a1 1 0 000 2h1v2H7a1 1 0 000 2h1v2H7a1 1 0 000 2h1v2H4V4h16z"/></svg>

<svg xmlns="http://www.w3.org/2000/svg" viewBox="0 0 24 24"><path d="M21,2H3A1,1,0,0,0,2,3V21a1,1,0,0,0,1,1H9a1,1,0,0,0,1-1V10H21a1,1,0,0,0,1-1V3A1,1,0,0,0,21,2ZM20,8H18V7a1,1,0,0,0-2,0V8H14V7a1,1,0,0,0-2,0V8H10V7A1,1,0,0,0,8,7V8H7a1,1,0,0,0,0,2H8v2H7a1,1,0,0,0,0,2H8v2H7a1,1,0,0,0,0,2H8v2H4V4H20Z"/></svg>
